X:23
T:Norah
F:http://www.vwml.org/record/FK/8/23
Z:transcribed by Alice Baillie
M:6/8
L:1/8
K:C
"^Andante"G | !p!c>Bc !>(!(A!>)!G) E | c>Bc !>(!(A!>)!G) E | (F>GA) (G<c d) | !>(!e>d!>)!c B<d g | 
"_cres"f>ed e<g G | !pp!F>ED E<G E | "_cres"F>GA G(g/f/e/d/) | (dc)B c2 || 
G | c> B c A G E | c> B c A G E | F> G A (G<c) d/ B/ | 
w:As Beau-tious as Flo-ra is char-ming young No-rah, the joy of my heart_ and the 
e> d c (B<d) G | c> B c A G E | c> B c  A G E | 
w:pride of Kil-dare_ I ne'er will de-ceive her for sad-ly t'would grieve her to
F> G A (G<c) d/>c/ | TB> A B c2 G | 
w:find that I sighed_ for an-o-ther less fair Her 
A> F (c/A/) G< E G | A> F c/A/ G/ E E ^G/
w:heart with truth_  tee-ming her eyes with smi-les bea-_ming what
A> B c E< e d | c< TA B HA2 =G/f/ | 
w:mor-tle could in-jure a blo-ssom so rare as_ 
e> d c c> B A | G c c (B<Hd) G{Hgf} | 
w:No-rah dear No-rah the pride of Kil-dare_ Oh
e> d c {Bcd}c> B A | G> A HTB {AB e2d2} c2 z || 
w:No-rah dear No-rah the pride of Kil-dare
R:dynamics are displaying above the stave rather than below
R:couldn't read word (direction?) above stave on 2nd line page 2

